X: 150
T: He Is Returning
C: Teton Sioux band 1911-1914
N: Derived from sioux146.krn
O: South Dakota, U.S.A.
N: Teton Sioux Music by Frances Densmore, 1918
Z: transcribed to **kern format by Craig Sapp
L: 1/8
M: 2/4
Q: 1/4=58
K: E clef=treble
%%linebreak <none>
G> G (3G A G | 
F2E3/ D/ | 
E4 ||  
[M:3/4]F2>F2 (3G F F ||  
[M:2/4]E4 ||  
[M:3/4]C6 ||  
F2E2F E ||  
[M:2/4]C2A,2 ||  
[M:3/4]E> EC2E3/ E/ ||  
[M:2/4]C7/C/ ||  
[M:3/4]C4C2 ||  
[M:2/4]G2G2 | 
G G (A/ G/) G | 
(F2E2) ||  
[M:3/4]E4E3/ E/ ||  
[M:2/4]G> GG2 | 
F7/G/ | 
F2G F | 
E> EC2- | 
C2C3/ C/ | 
F> FF2 | 
(3(G F) F E E | 
C2A,2- | 
A,2A,3/ A,/ ||  
[M:3/4]E> EC2E E ||  
[M:2/4]C7/C/ | 
C4 :|]  



